X:6
T:New Year's Night
R:reel
S:O'Neill's Waifs and Strays of Gaelic Melody.  From the piping of Bernard Delaney.
Z:John Walsh Dec 99
S:John Walsh <walsh:math.ubc.ca> irtrad-l 2001-12-7
M:C|
K:G
gf|eA ~A2 edBd|(3efg dB GABd|eA ~A2 edBc|d2 ef g2 z f|
eA ~A2 edBd|(3efg dB GABd|edef gfga|gedB A2||
BA|G2 Bd g2 ge|dedBd2 BA|G2 Bd g2 af|gedB AcBA|
G2 Bd g2 ge|dedB dega|bgag (3efg fa|gedB A2||
